X: 20780
T: Johnny Loughran's
R: reel
M: 4/4
K: Dmajor
|AFdF A3B|AFdf efdB|AFdF Abde|fedf e3B|
AFdF A3B|AFdf efdB|AFdF Abde|fedf e3f|
defg a3f|b3f a3f|defg adfa|bfaf egfe|
defg a3f|b3f a3f|g3e f3e|dgfe d3||

